brandFactory_export/3.Masa/Velocidad RPM_3Masa.svg

<?xml version="1.0" encoding="UTF-8"?>
<svg width="24px" height="24px" viewBox="0 0 24 24" version="1.1" xmlns="http://www.w3.org/2000/svg" xmlns:xlink="http://www.w3.org/1999/xlink">
    <title>3.Masa/Velocidad RPM_3Masa</title>
    <g id="Symbols" stroke="none" stroke-width="1" fill="none" fill-rule="evenodd">
        <g id="3.Masa/Velocidad-RPM_3Masa" fill="#5CB615" fill-rule="nonzero">
            <path d="M20.9344538,14.9344538 L13.2840336,17.1327731 C13.1394958,17.7983193 12.5344538,18.2991597 11.8117647,18.2991597 C10.9781513,18.2991597 10.3058824,17.6369748 10.3058824,16.8201681 C10.3058824,16.0033613 10.9815126,15.3445378 11.8117647,15.3445378 C12.2252101,15.3445378 12.5983193,15.5058824 12.8705882,15.7714286 L20.5277311,13.5697479 C20.9142857,13.4588235 21.3142857,13.6739496 21.4252101,14.0504202 C21.5394958,14.4302521 21.3176471,14.8235294 20.9344538,14.9344538 L20.9344538,14.9344538 Z M6.98487395,10.7831933 C6.84369748,10.9210084 6.65882353,10.9915966 6.47058824,10.9915966 C6.28571429,10.9915966 6.10084034,10.9210084 5.95966387,10.7831933 L5.26722689,10.1042017 C4.98487395,9.82521008 4.98487395,9.37815126 5.26722689,9.09915966 C5.54957983,8.82016807 6.01008403,8.82016807 6.29243697,9.09915966 L6.98487395,9.77815126 C7.27058824,10.0571429 7.27058824,10.507563 6.98487395,10.7831933 Z M4.56134454,15.5159664 L3.57983193,15.5159664 C3.17983193,15.5159664 2.85714286,15.1966387 2.85714286,14.8067227 C2.85714286,14.4168067 3.18319328,14.097479 3.57983193,14.097479 L4.56134454,14.097479 C4.96134454,14.097479 5.28403361,14.4168067 5.28403361,14.8067227 C5.28403361,15.1966387 4.96134454,15.5159664 4.56134454,15.5159664 Z M11.0722689,7.67731092 C11.0722689,7.28403361 11.3983193,6.96806723 11.794958,6.96806723 C12.194958,6.96806723 12.5176471,7.28739496 12.5176471,7.67731092 L12.5176471,8.63865546 C12.5176471,9.03193277 12.1915966,9.34789916 11.794958,9.34789916 C11.394958,9.34789916 11.0722689,9.02857143 11.0722689,8.63865546 L11.0722689,7.67731092 Z M16.5983193,9.78151261 L17.2907563,9.10252101 C17.5731092,8.82352941 18.0302521,8.82352941 18.3159664,9.10252101 C18.5983193,9.38151261 18.5983193,9.82857143 18.3159664,10.107563 L17.6235294,10.7865546 C17.4823529,10.9243697 17.297479,10.994958 17.112605,10.994958 C16.9277311,10.994958 16.7428571,10.9243697 16.6016807,10.7865546 C16.3159664,10.507563 16.3159664,10.0571429 16.5983193,9.78151261 L16.5983193,9.78151261 Z M11.8084034,4 C4.08403361,4 0,8.00672269 0,15.5831933 C0,17.3109244 0.218487395,18.8739496 0.648739496,20.2319328 C0.742857143,20.5277311 1.02184874,20.7294118 1.34117647,20.7294118 L22.2722689,20.7294118 C22.5478992,20.7294118 22.8,20.5747899 22.9210084,20.3327731 L22.9445378,20.2823529 C22.9613445,20.2487395 22.9747899,20.2151261 22.9882353,20.1781513 C23.4084034,18.8336134 23.6235294,17.287395 23.6235294,15.5831933 C23.6235294,8.00672269 19.5394958,4 11.8084034,4 Z" id="Velocidad-RPM_3Masa"></path>
        </g>
    </g>
</svg>

<svg width="24" height="24" viewBox="0 0 24 24" xmlns="http://www.w3.org/2000/svg"><path d="M20.934 14.934l-7.65 2.199a1.5 1.5 0 01-1.472 1.166 1.491 1.491 0 01-1.506-1.479c0-.817.676-1.475 1.506-1.475.413 0 .786.16 1.059.426l7.657-2.201a.722.722 0 01.897.48.709.709 0 01-.49.884zm-13.95-4.15a.733.733 0 01-1.024 0l-.693-.68a.702.702 0 010-1.005.733.733 0 011.025 0l.693.68a.696.696 0 010 1.004zm-2.423 4.732H3.58c-.4 0-.723-.32-.723-.71 0-.39.326-.709.723-.709h.981c.4 0 .723.32.723.71 0 .39-.323.709-.723.709zm6.511-7.839c0-.393.326-.709.723-.709.4 0 .723.32.723.71v.96c0 .394-.326.71-.723.71-.4 0-.723-.32-.723-.71v-.96zm5.526 2.105l.693-.68a.733.733 0 011.025 0 .702.702 0 010 1.006l-.692.679a.731.731 0 01-1.022 0 .7.7 0 01-.004-1.005zM11.808 4C4.084 4 0 8.007 0 15.583c0 1.728.218 3.29.649 4.649a.722.722 0 00.692.497h20.931a.725.725 0 00.649-.396l.024-.05a.968.968 0 00.043-.105c.42-1.344.636-2.89.636-4.595C23.624 8.007 19.539 4 11.808 4z" fill="#5CB615" fill-rule="nonzero"/></svg>
